!!!OTL: Leang Dai
!!!XEN: Wash Hands
!! From Sam-Ang Sam & Patricia Shehan Campbell,
!! "Silent Temples, Songful Hearts: Traditional Music of Cambodia"
!! Danbury CT: World Music Press, 1991
!! page 64
!! Genre: Etiquette songs for small children.
**kern	**silbe
*clefG2	*LKhmer
*k[f#]	*
*M4/4	*
=1-	=1-
{8e	Boeu
8d	dai
8B	yeung
8e	pra-
8d	-lakk
=2	=2
8.d}	dey
{16d	komm
8B	chapp
8d	cham-
8g	-ney
8a	roeu
8g	num
8e	a-
=3	=3
4.d}	-har
{8g	pruoh
8a	mean
8g	me-
8e	-rok
8d	roeu-
=4	=4
4B}	-sya
{8g	kach
8a	khlaing
8b	kla
8d	pra-
8e	-ha
8g	yeung
=5	=5
4.a}	ban.
!! Second verse:
{8d	Dauch-
8d	-neh
8e	trauv
8d	mni
=6	=6
8.d}	mnea
{16d	kam-
8B	-chatt
8d	pouch
8g	vea
8a	teup
8g	ban
8e	sokk
=7	=7
4.d}	san
{8g	leang
8a	dai
8g	noeung
8e	toeuk
8d	muoy
=8	=8
4B}	chan
{8g	rouch
8a	komm
8b	khan
8d	doh
8e	no-
16g	-eung
16a	sa-
=9	=9
4.g;}	-bou.
==	==
*-	*-
